X:1
T: the Belles of St. Louis
S:Tommy Peoples
D:The Iron Man
N:Similar to "Belles of Tipperary"
Z:Juergen.Gier@post.rwth-aachen.de
M:C|
K:D
| D3E F3A | defe dBBA | ~B2dB- BdAB | dfaf e2dB |
| AD~D2 FDFA | defe dBBA | ~B2Ad BdAc | dcdA FDD2 :|
|: f^gab afdf | bafe fedB | ~d2f^g ~a2fa | bfaf e3a |
| fa~a2 afdf | bafe fedA | ~B2Ad BdAc |1 dcdA FDD2 :|2 dcdF GEFE |]
